Papirus-nordic/48x48/places/folder-nordic-templates.svg

<svg xmlns="http://www.w3.org/2000/svg" width="48" height="48" version="1"><rect width="40" height="26" x="4" y="17" rx="2" ry="2" opacity=".2"/><path d="M4 34c0 1.108.892 2 2 2h36c1.108 0 2-.892 2-2V12c0-1.108-.892-2-2-2H22V8c0-1.108-.892-2-2-2H6c-1.108 0-2 .892-2 2" fill="#6c9b9a"/><rect width="40" height="26" x="4" y="15" rx="2" ry="2" opacity=".2"/><rect width="36" height="16" x="6" y="13" rx="2" ry="2" fill="#e4e4e4"/><rect width="40" height="26" x="4" y="16" rx="2" ry="2" fill="#82abaa"/><path d="M6 6c-1.108 0-2 .892-2 2v1c0-1.108.892-2 2-2h14c1.108 0 2 .892 2 2V8c0-1.108-.892-2-2-2zm16 4v1h20c1.108 0 2 .892 2 2v-1c0-1.108-.892-2-2-2z" opacity=".1" fill="#fff"/><path d="M19 22c-.554 0-1 .446-1 1v9h1v-1h1v-7h5v3h3v9h1v-1h1v-9l-4-4zm10 14v1h1v-1zm-1 0h-1v1h1zm-1 0v-1h-1v1zm-1 0h-1v1h1zm-1 0v-1h-1v1zm-1 0h-1v1h1zm-1 0v-1h-1v1zm-1 0h-1v1h1zm-1 0v-1h-1v1zm-1 0h-1v1h1zm-1 0v-1h-1v1zm0-1h1v-1h-1zm0-1v-1h-1v1zm0-1h1v-1h-1z" fill="#4e6766"/></svg>

<svg xmlns="http://www.w3.org/2000/svg" width="48" height="48" version="1">
 <rect style="opacity:0.2" width="40" height="26" x="4" y="17" rx="2" ry="2"/>
 <path style="fill:#6c9b9a" d="M 4,34 C 4,35.108 4.892,36 6,36 H 42 C 43.108,36 44,35.108 44,34 V 12 C 44,10.892 43.108,10 42,10 H 22 V 8 C 22,6.892 21.108,6 20,6 H 6 C 4.892,6 4,6.892 4,8"/>
 <rect style="opacity:0.2" width="40" height="26" x="4" y="15" rx="2" ry="2"/>
 <rect style="fill:#e4e4e4" width="36" height="16" x="6" y="13" rx="2" ry="2"/>
 <rect style="fill:#82abaa" width="40" height="26" x="4" y="16" rx="2" ry="2"/>
 <path style="opacity:0.1;fill:#ffffff" d="M 6,6 C 4.892,6 4,6.892 4,8 V 9 C 4,7.892 4.892,7 6,7 H 20 C 21.108,7 22,7.892 22,9 V 8 C 22,6.892 21.108,6 20,6 Z M 22,10 V 11 H 42 C 43.108,11 44,11.892 44,13 V 12 C 44,10.892 43.108,10 42,10 Z"/>
 <path style="fill:#4e6766" d="M 19,22 C 18.446,22 18,22.446 18,23 V 32 H 19 V 31 H 20 V 24 H 25 V 27 H 28 V 35 36 H 29 V 35 H 30 V 26 L 26,22 Z M 29,36 V 37 H 30 V 36 Z M 28,36 H 27 V 37 H 28 Z M 27,36 V 35 H 26 V 36 Z M 26,36 H 25 V 37 H 26 Z M 25,36 V 35 H 24 V 36 Z M 24,36 H 23 V 37 H 24 Z M 23,36 V 35 H 22 V 36 Z M 22,36 H 21 V 37 H 22 Z M 21,36 V 35 H 20 V 36 Z M 20,36 H 19 V 37 H 20 Z M 19,36 V 35 H 18 V 36 Z M 19,35 H 20 V 34 H 19 Z M 19,34 V 33 H 18 V 34 Z M 19,33 H 20 V 32 H 19 Z"/>
</svg>
